public/images/superi-coin3.svg

<svg width="48" height="48" viewBox="0 0 48 48" fill="none" xmlns="http://www.w3.org/2000/svg">
<g id="Group 65">
<rect id="Rectangle 115" width="48" height="48" rx="12" fill="url(#paint0_linear_33_571)"/>
<g id="Group 56">
<g id="Union">
<mask id="path-2-inside-1_33_571" fill="white">
<path fill-rule="evenodd" clip-rule="evenodd" d="M24.0001 37.3332C31.3639 37.3332 37.3334 31.3636 37.3334 23.9998C37.3334 16.636 31.3639 10.6665 24.0001 10.6665C16.6363 10.6665 10.6667 16.636 10.6667 23.9998C10.6667 26.3977 11.2997 28.6477 12.4077 30.5919L11.4263 34.2545C11.1606 35.2459 12.0678 36.1531 13.0593 35.8875L16.4373 34.9823C18.5863 36.465 21.1918 37.3332 24.0001 37.3332Z"/>
</mask>
<path d="M12.4077 30.5919L14.9835 31.2821C15.1652 30.6039 15.0721 29.8815 14.7245 29.2716L12.4077 30.5919ZM11.4263 34.2545L14.0021 34.9447L11.4263 34.2545ZM13.0593 35.8875L12.3691 33.3117L12.3691 33.3117L13.0593 35.8875ZM16.4373 34.9823L17.9517 32.7874C17.3082 32.3434 16.5023 32.2042 15.7472 32.4065L16.4373 34.9823ZM34.6667 23.9998C34.6667 29.8909 29.8911 34.6665 24.0001 34.6665V39.9998C32.8366 39.9998 40.0001 32.8364 40.0001 23.9998H34.6667ZM24.0001 13.3332C29.8911 13.3332 34.6667 18.1088 34.6667 23.9998H40.0001C40.0001 15.1633 32.8366 7.99984 24.0001 7.99984V13.3332ZM13.3334 23.9998C13.3334 18.1088 18.109 13.3332 24.0001 13.3332V7.99984C15.1635 7.99984 8.00008 15.1633 8.00008 23.9998H13.3334ZM14.7245 29.2716C13.8398 27.719 13.3334 25.9226 13.3334 23.9998H8.00008C8.00008 26.8728 8.75965 29.5764 10.0908 31.9122L14.7245 29.2716ZM14.0021 34.9447L14.9835 31.2821L9.83187 29.9017L8.85047 33.5643L14.0021 34.9447ZM12.3691 33.3117C13.3605 33.046 14.2677 33.9533 14.0021 34.9447L8.85047 33.5643C8.05352 36.5386 10.7752 39.2603 13.7495 38.4633L12.3691 33.3117ZM15.7472 32.4065L12.3691 33.3117L13.7494 38.4633L17.1275 37.5581L15.7472 32.4065ZM24.0001 34.6665C21.7498 34.6665 19.6697 33.9727 17.9517 32.7874L14.923 37.1773C17.5029 38.9573 20.6337 39.9998 24.0001 39.9998V34.6665Z" fill="white" mask="url(#path-2-inside-1_33_571)"/>
</g>
<path id="Vector 22" d="M18.6667 28C21.3334 30.6667 26.6667 30.6667 29.3334 28" stroke="white" stroke-width="2.66667" stroke-linecap="round"/>
</g>
</g>
<defs>
<linearGradient id="paint0_linear_33_571" x1="23.4146" y1="0" x2="23.4146" y2="48" gradientUnits="userSpaceOnUse">
<stop stop-color="#263B85"/>
<stop offset="0.0001" stop-color="#263B85"/>
<stop offset="1" stop-color="#121D43"/>
</linearGradient>
</defs>
</svg>

<svg xmlns="http://www.w3.org/2000/svg" width="48" height="48" fill="none"><rect width="48" height="48" fill="url(#a)" rx="12"/><g fill="#fff"><mask id="b"><path fill-rule="evenodd" d="M24 37.333c7.364 0 13.333-5.97 13.333-13.333 0-7.364-5.97-13.334-13.333-13.334-7.364 0-13.333 5.97-13.333 13.334 0 2.398.633 4.648 1.74 6.592l-.98 3.663a1.333 1.333 0 0 0 1.632 1.633l3.378-.906A13.272 13.272 0 0 0 24 37.333Z" clip-rule="evenodd"/></mask><path d="m12.408 30.592 2.575.69c.182-.678.09-1.4-.258-2.01l-2.317 1.32Zm-.982 3.663 2.576.69-2.576-.69Zm1.633 1.633-.69-2.576.69 2.576Zm3.378-.906 1.515-2.195a2.667 2.667 0 0 0-2.205-.38l.69 2.575ZM34.667 24c0 5.89-4.776 10.666-10.667 10.666V40c8.837 0 16-7.164 16-16h-5.333ZM24 13.333c5.891 0 10.667 4.776 10.667 10.667H40c0-8.837-7.163-16-16-16v5.333ZM13.333 24c0-5.891 4.776-10.667 10.667-10.667V8C15.164 8 8 15.163 8 24h5.333Zm1.392 5.272A10.607 10.607 0 0 1 13.333 24H8c0 2.873.76 5.576 2.09 7.912l4.635-2.64Zm-.723 5.673.981-3.663-5.151-1.38-.982 3.662 5.152 1.38Zm-1.633-1.633a1.333 1.333 0 0 1 1.633 1.633l-5.152-1.38c-.796 2.974 1.925 5.695 4.9 4.898l-1.38-5.151Zm3.378-.905-3.378.905 1.38 5.151 3.379-.905-1.38-5.151ZM24 34.666a10.6 10.6 0 0 1-6.048-1.88l-3.029 4.39A15.938 15.938 0 0 0 24 40v-5.334Z" mask="url(#b)"/></g><path stroke="#fff" stroke-linecap="round" stroke-width="2.667" d="M18.667 28c2.666 2.667 8 2.667 10.666 0"/><defs><linearGradient id="a" x1="23.415" x2="23.415" y1="0" y2="48" gradientUnits="userSpaceOnUse"><stop stop-color="#263B85"/><stop offset="0" stop-color="#263B85"/><stop offset="1" stop-color="#121D43"/></linearGradient></defs></svg>
